apps/ui-icons/svgs/edit.svg

<svg viewBox="0 0 24 24" width="24" height="24"  fill="none" xmlns="http://www.w3.org/2000/svg">
<path fill-rule="evenodd" clip-rule="evenodd" d="M19.5613 4.4386C18.9754 3.8538 18.0245 3.8538 17.4386 4.4386L16.6478 5.22784L18.7677 7.3436L19.5613 6.55157C20.1462 5.96786 20.1462 5.0223 19.5613 4.4386ZM20.9741 7.96717C22.3419 6.6021 22.3419 4.38806 20.9741 3.02299C19.6074 1.659 17.3924 1.659 16.0258 3.02299L14.5261 4.5197C14.5255 4.52028 14.525 4.52085 14.5244 4.52143L2 17.0212V22H6.91364L20.9741 7.96717ZM17.3521 8.75642L15.2322 6.64067L4 17.8507V20H6.08636L17.3521 8.75642Z" fill="#171D26"/>
</svg>

<svg xmlns="http://www.w3.org/2000/svg" width="24" height="24" fill="none" viewBox="0 0 24 24">
  <path fill="#171D26" fill-rule="evenodd" d="M19.561 4.439a1.503 1.503 0 0 0-2.122 0l-.791.789 2.12 2.116.793-.792a1.492 1.492 0 0 0 0-2.113Zm1.413 3.528a3.492 3.492 0 0 0 0-4.944 3.503 3.503 0 0 0-4.948 0l-1.5 1.497-.002.001L2 17.021V22h4.914l14.06-14.033Zm-3.622.79-2.12-2.116L4 17.85V20h2.086L17.352 8.756Z" clip-rule="evenodd"/>
</svg>
